X:1
T:15
T:15
T:Études enfantines op. 37
T:Henry Lemoine
C:Henry Lemoine
%%score { 1 | 2 }
L:1/8
Q:1/4=140
M:2/4
K:D
V:1 treble nm="Piano" snm="Pno."
V:2 treble 
V:1
!p!"^Allegretto\n" z/"_legatissimo" (!4!a/!3!^g/!1!=g/ !2!f/!4!a/g/f/ | %1
 !1!e/!4!g/f/e/ !1!d/!3!f/e/d/ | !2!c/!4!e/!3!^d/!1!=d/ !2!c/!4!e/d/c/ | %3
 !1!B/!4!d/c/B/ !1!A/!3!c/B/A/) |!mf! z/ (!4!a/!3!^g/!1!=g/ !2!f/!4!a/g/f/ | %5
 !1!e/!4!g/f/e/ !1!d/!3!f/e/d/ |"_cresc." !2!c/!4!e/d/c/ !1!B/!4!d/c/B/) | %7
 (A/!5!e/d/c/!f! !2!B/!4!d/c/B/) | (A/!5!e/d/c/ !2!B/!4!d/c/B/) | (A/!5!e/d/c/ !2!B/!4!d/c/B/) | %10
 (A/^G/!1!A/B/ c/!1!B/c/d/ |"_dim." e/d/!2!c/!1!d/ e/f/g/e/) | %12
!p! z/ (!4!a/!3!^g/!1!=g/ !2!f/!4!a/g/f/ | !1!e/!4!g/f/e/ !1!d/!3!f/e/d/ | %14
 !2!c/!4!e/!3!^d/!1!=d/ !2!c/!4!e/d/c/ | !1!B/!4!d/c/B/ !1!A/!3!c/B/A/) | %16
!mf! z/ (!4!a/!3!^g/!1!=g/ !2!f/!4!a/g/f/ | !1!e/!4!g/f/e/ !1!d/!3!f/e/d/ | %18
 !2!=c/!4!e/d/c/ B/!4!d/c/B/ | A/!4!=c/B/A/ G/!4!B/A/^G/ | !1!=G/!4!B/!3!A/!1!G/ !2!F/!4!A/G/F/) | %21
!<(! (!1!E/F/G/!1!A/ B/^c/^d/!<)!!5!e/ |!<(! !2!c/!1!=d/e/f/ !1!g/a/b/!<)!c'/ | %23
!f! (d'/)!1!a/^g/!1!a/ !2!b/a/c'/a/ | d'/!1!a/^g/!1!a/ !2!b/a/c'/a/ | %25
 d'/!1!a/^g/!1!a/ !2!b/a/c'/a/ | d'/!1!a/^g/!1!a/ !2!b/a/c'/a/ | .d') z!ff! !fermata![FAd]2 |] %28
V:2
 !4!!2![DF]4 | .[DG] z .[DF] z |[K:bass] !4!!2![A,E]4 | .[A,D] z .[A,C] z | [D,F,A,]4 | %5
 .[D,G,A,] z .[D,F,A,] z | .[E,A,] z .[E,^G,] z |[K:bass] .A, z (!>![E,^G,]2 | %8
 .A,) z (!>![E,^G,]2 | .A,) z (!>![E,^G,]2 | .A,) z z2 | z4 | !4!!2![DF]4 | .[DG] z .[DF] z | %14
[K:bass] !4!!2![A,E]4 | .[A,D] z .[A,C] z | [D,F,A,]4 | .[D,G,A,] z .[D,F,A,] z | %18
 (!>!!4![F,A,]2 .[G,B,]) z | (!>!!4!!2![D^F]2 .E) z | (!>!!4!!2![^CE]2 .D) z | %21
[K:bass] .!5!!3![G,B,] z z2 |[K:treble] .!5!!3!!1![A,EG] z z2 | .!4!!2![DF] z .!5!!3!!1![A,EG] z | %24
 .!4!!2![DF] z .!5!!3!!1![A,EG] z | .!4!!2![DF] z .!5!!3!!1![A,EG] z | %26
 .!4!!2![DF] z .!5!!3!!1![A,EG] z | .!4!!2![DF] z[K:bass] !fermata![D,A,]2 |] %28

